X: 575
U:~=!turn!
T: Sir Roger de Coverley
C:
O:Scotland
B:Keith Norman MacDonald : "The Skye collection of the best reels & strathspeys extant" : 1887
Z:Ralph Palmer
N:Country Dance
R:Slip Jig
M:9/8
L:1/8
K:D mixolydian
D !segno!|: G2G G2e dBG | A2A ABG FED | G2G G2e def | g2G GAG FED :|
|: dBd ece dBG | A2A ABG FED & F2A xxx xxx  | dBd ece def | g2G GAG FED :|
|: gag f2e dBG | A2A ABA FED & F2A xxx F2D | gag f2e def | g2[Gg] [Gg][Aa][Gg] [Ff][Ee][Dd] :|


